X: 2
T: The Plough And The Stars
R: reel
M: 4/4
L: 1/8
K: Fmaj
|:FDCD FGAc| fg (3agf gfdc|Ac (3ccc dAcA| fdcA ~B2 AG|FDCD FGAc| fg (3agf gfdc |Ac (3ccc dAcA |1 GFGA FBAG :|2 GFGA FGAc||:~f3 a ~g3 a |fgaf gfdc|Ac ~c2 d2 cd|fdcA (3BcB AG|FDCD FGAc|fgaf gfdc|Ac ~c2 dAcA|GFGA FGAc:|


Tune 1768	Setting 1768

